X:1
T:Soon in the Homeland
T:Soon in the Homeland
T:Johannes A. Hultman (1861-1942)
T:Johannes Alfred Hultman, trans Signe L. Bennett
T:Public Domain Courtesy of the Cyber Hymnal™
C:Johannes A. Hultman (1861-1942)
Z:Public Domain
Z:Courtesy of the Cyber Hymnal™
%%score ( 1 2 ) ( 3 4 )
L:1/8
Q:1/4=112
M:4/4
K:G
V:1 treble 
V:2 treble 
V:3 bass 
V:4 bass 
V:1
 [GB]2 (BA) [DG]2 [DG]2 | [DG]2 (3(G{a}AG) [DF]2 [DF]2 | [CE]2 [CD]2 [B,D]2 (GA) | %3
w: 1.~Soon all * earth- ly|strife will * * van- ish,|Soon I’ll reach the *|
w: 2.~Oh, to * think of|see- ing * * Je- sus|Whom thro’ faith I *|
w: 3.~From all * ends of|earth they’ll * * ga- ther|In the bless- èd *|
w: 4.~Oh, to * think of|ev- er * * dwell- ing|With my Lord, whose *|
 [DB]2 [FA]2 [GB]4 | [GB]2 (BA) [DG]2 [DG]2 | [DG]2 (3(G{a}AG) [DF]2 [DF]2 | %6
w: heav’n- ly strand;|Oh, what * joy will|sor- row * * ban- ish|
w: know and love,|And to * God lift|up my * * prais- es|
w: home- land fair;|Loved ones * then shall|meet each * * o- ther|
w: blood was shed,|With the * heav’n- ly|mu- sic * * swell- ing|
 [CE]2 [CD]2 [B,D]2 ([EG][GA]) | [GB]2 [FA]2 G4 ||"^Refrain" [Gc]2 [Gc]>[Gc] (c>B) [EA]2 | %9
w: When be- fore my *|Lord I stand.||
w: To the tune of *|harps a- bove.||
w: And no part- ing *|will be there.||
w: As the wed- ding *|feast is spread.||
 [GB]2 [GB]>[GB] (B>A) [DG]2 | [FA]2 [FA]2 G2 [DF]2 | [DG]2 [GB]2 [Gd]4 | %12
w: |||
w: |||
w: |||
w: |||
 [Gc]2 [Gc]>[Gc] (c>B) [EA]2 | [GB]2 [GB]>[GB] (B>A) [DG]2 | [EA]2 [EA]2 [DG]2 [DF]2 | [DG]6 z2 |] %16
w: ||||
w: ||||
w: ||||
w: ||||
V:2
 x2 G2 x4 | x2 D2 x4 | x6 D2 | x8 | x2 G2 x4 | x2 D2 x4 | x8 | x4 G4 || x4 G2 x2 | x4 G2 x2 | %10
 x4 G2 x2 | x8 | x4 G2 x2 | x4 G2 x2 | x8 | x8 |] %16
V:3
 [G,D]2 (DC) [G,B,]2 [G,B,]2 | [G,B,]2 [G,B,]2 A,2 A,2 | [F,A,]2 [F,A,]2 [G,B,]2 (B,C) | %3
w: ~ ~ * ~ ~|~ ~ ~ ~|~ ~ ~ ~ *|
 [G,D]2 [D,D]2 [G,D]4 | [G,D]2 (DC) [G,B,]2 [G,B,]2 | [G,B,]2 [G,B,]2 A,2 A,2 | %6
w: ~ ~ ~|~ ~ * ~ ~|~ ~ ~ ~|
 [F,A,]2 [F,A,]2 [G,B,]2 (B,^C) | [D,D]2 [D,C]2 [G,B,]4 || [C,E]2 [C,E]>[C,E] (E>D) [C,C]2 | %9
w: ~ ~ ~ ~ *|~ ~ ~|Soon in the home- * land,|
 [G,,D]2 [G,,D]>[G,,D] (D>C) [G,B,]2 | [D,D]2 [D,C]2 [D,B,]2 [D,A,]2 | [G,B,]2 [D,D]2 [B,,=F]4 | %12
w: soon in the home- * land,|Free from sor- row,|pain and care,|
 [C,E]2 [C,E]>[C,E] (E>D) [C,C]2 | [G,,D]2 [G,,D]>[G,,D] (D>C) [G,B,]2 | %14
w: Soon in the home- * land,|soon in the home- * land,|
 [C,C]2 [C,C]2 [D,B,]2 [D,A,]2 | [G,,B,]6 z2 |] %16
w: I’m with Je- sus|there.|
V:4
 x2 G,2 x4 | x4 A,2 A,2 | x6 G,2 | x8 | x2 G,2 x4 | x4 A,2 A,2 | x6 E,2 | x8 || x4 C,2 x2 | %9
 x4 G,2 x2 | x8 | x8 | x4 C,2 x2 | x4 G,2 x2 | x8 | x8 |] %16

